X: 1478
T: Andrew Carr
R: slip jig
M: 9/8
K: Dmajor
d2B AFA AFA|d2A def g2e|d2B AFA ABc|d2D DEF E2D:|
|:F2A AFA AFD|G2B Bcd c2A|F2A AFA ABc|d2D DEF E2D:|

